configs/network-icons/rootstock-short.svg

<svg width="30" height="30" viewBox="0 0 30 30" fill="none" xmlns="http://www.w3.org/2000/svg">
<path d="M15.0328 8.24556C17.308 8.24556 19.1525 6.39973 19.1525 4.12278C19.1525 1.84583 17.308 0 15.0328 0C12.7575 0 10.9131 1.84583 10.9131 4.12278C10.9131 6.39973 12.7575 8.24556 15.0328 8.24556Z" fill="#FF9100"/>
<path d="M26.4876 16.8675C24.5161 15.7302 21.9973 16.4075 20.8608 18.3806C20.4695 19.0595 20.2938 19.8028 20.3105 20.5327C20.3518 22.3497 18.7191 23.2953 17.1666 22.3569C17.1054 22.3195 17.0425 22.2829 16.9789 22.2487C15.409 21.3716 15.4098 19.5036 16.9805 18.6273C18.2665 17.9301 19.1406 16.5667 19.1406 15.0004C19.1406 14.9685 19.139 14.9375 19.1382 14.9064L19.1398 14.9088C19.0992 13.0894 20.736 12.1447 22.29 13.0902C23.5347 13.8463 25.1428 13.9171 26.4924 13.1364C28.4624 11.9974 29.1368 9.4752 27.9987 7.50374C26.8606 5.53229 24.3403 4.85736 22.3703 5.9963C21.0215 6.77629 20.281 8.20334 20.3121 9.65905C20.3526 11.4745 18.7214 12.4192 17.1706 11.4825C16.5447 11.0988 15.8098 10.8776 15.0225 10.8776C14.2351 10.8776 13.5002 11.0988 12.8751 11.4817C11.3275 12.4153 9.70105 11.4721 9.7424 9.66064C9.77421 8.20175 9.0298 6.77151 7.67698 5.99232C5.70462 4.85736 3.18588 5.53707 2.05176 7.51091C0.917654 9.48475 1.59685 12.0054 3.56921 13.1403C4.91726 13.9163 6.52061 13.8439 7.76288 13.0902C9.31293 12.1486 10.9457 13.0926 10.9043 14.9072L10.9059 14.9049C10.9059 14.9367 10.9036 14.9685 10.9036 15.0012C10.9036 16.5683 11.7768 17.9309 13.0636 18.6281C14.6351 19.5052 14.6343 21.3755 13.062 22.251C12.9984 22.2853 12.9364 22.3219 12.8751 22.3593C11.3275 23.2913 9.70184 22.3473 9.7432 20.5359C9.76069 19.8028 9.58334 19.0555 9.18966 18.3742C8.04919 16.4035 5.52886 15.7318 3.55967 16.8723C1.58651 18.0129 0.915268 20.5351 2.05495 22.5057C3.19542 24.4764 5.71575 25.1481 7.68494 24.0076C7.71039 23.9925 7.73504 23.9766 7.76049 23.9614L7.75811 23.9646C9.30975 23.0223 10.9425 23.967 10.9004 25.7825L10.902 25.7801C10.902 25.8135 10.8996 25.8477 10.8996 25.8812C10.902 28.1582 12.7479 30.0023 15.0233 30C17.2986 29.9976 19.1414 28.1503 19.139 25.8732C19.139 25.843 19.1374 25.8127 19.1366 25.7825L19.1382 25.7849C19.0968 23.9646 20.7344 23.0191 22.2892 23.9646L22.2868 23.9606C22.3154 23.9782 22.3425 23.9957 22.3711 24.0124C24.3427 25.1497 26.8614 24.4724 27.9979 22.4994C29.1344 20.5263 28.4576 18.0057 26.486 16.8683L26.4876 16.8675Z" fill="#FF9100"/>
</svg>

<svg xmlns="http://www.w3.org/2000/svg" fill="none" viewBox="0 0 30 30">
  <path fill="#FF9100" d="M15.033 8.246a4.121 4.121 0 0 0 4.12-4.123A4.121 4.121 0 0 0 15.032 0a4.121 4.121 0 0 0-4.12 4.123 4.121 4.121 0 0 0 4.12 4.123Z"/>
  <path fill="#FF9100" d="M26.488 16.867a4.118 4.118 0 0 0-5.627 1.514 4.107 4.107 0 0 0-.55 2.152c.04 1.817-1.592 2.762-3.144 1.824a3.94 3.94 0 0 0-.188-.108c-1.57-.877-1.57-2.745.002-3.622A4.123 4.123 0 0 0 19.14 15l-.003-.094.002.003c-.04-1.82 1.596-2.764 3.15-1.819a4.116 4.116 0 0 0 4.202.046A4.125 4.125 0 0 0 28 7.504a4.119 4.119 0 0 0-7.687 2.155c.04 1.816-1.59 2.76-3.141 1.823a4.095 4.095 0 0 0-2.148-.604c-.788 0-1.523.22-2.148.604-1.547.933-3.174-.01-3.133-1.821a4.118 4.118 0 0 0-7.69-2.15 4.125 4.125 0 0 0 1.517 5.63 4.116 4.116 0 0 0 4.194-.05c1.55-.942 3.183.002 3.141 1.816l.002-.002-.002.096a4.12 4.12 0 0 0 2.16 3.627c1.571.877 1.57 2.747-.002 3.623-.064.034-.126.07-.187.108-1.547.932-3.173-.012-3.132-1.823a4.119 4.119 0 0 0-6.184-3.664 4.122 4.122 0 1 0 4.126 7.136l.075-.047-.002.004c1.552-.943 3.185.002 3.142 1.817l.002-.002-.002.101A4.121 4.121 0 0 0 15.023 30a4.121 4.121 0 0 0 4.116-4.127l-.002-.09.001.002c-.041-1.82 1.596-2.766 3.151-1.82l-.002-.004.084.051a4.118 4.118 0 0 0 5.627-1.513 4.124 4.124 0 0 0-1.512-5.63l.002-.002Z"/>
</svg>
